X: 215
T: Jieme guandeng
L: 1/8
M: 2/4
K: D
d F A3/ B/ [I:setbarnb 1]| 
d c/ B/F2 | 
f f/ e/ f/ a/ f/ e/ | 
d c/ B/F2 | 
d A/ B/ d d | 
A B/ d/ B B/ A/ | 
F F/ E< F E/ | 
D2z f | 
e f B e | 
d2f c/ B/ | 
A2B A/ F/ | 
E2A B | 
d3f | 
e f B e | 
d d A A/ A/ | 
B2F F/ F/ | 
ED3 |]

@@@ Tune index: 9089
